svg/coin.svg

<?xml version="1.0" encoding="UTF-8" standalone="no"?>
<svg
   width="100%"
   height="100%"
   viewBox="0 0 128 128"
   version="1.1"
   xml:space="preserve"
   style="fill-rule:evenodd;clip-rule:evenodd;stroke-linejoin:round;stroke-miterlimit:2;"
   id="svg2221"
   sodipodi:docname="coin.svg"
   inkscape:version="1.2.2 (732a01da63, 2022-12-09)"
   xmlns:inkscape="http://www.inkscape.org/namespaces/inkscape"
   xmlns:sodipodi="http://sodipodi.sourceforge.net/DTD/sodipodi-0.dtd"
   xmlns="http://www.w3.org/2000/svg"
   xmlns:svg="http://www.w3.org/2000/svg"><defs
   id="defs2225" /><sodipodi:namedview
   id="namedview2223"
   pagecolor="#ffffff"
   bordercolor="#000000"
   borderopacity="0.25"
   inkscape:showpageshadow="2"
   inkscape:pageopacity="0.0"
   inkscape:pagecheckerboard="0"
   inkscape:deskcolor="#d1d1d1"
   showgrid="false"
   inkscape:zoom="2.9996795"
   inkscape:cx="55.839298"
   inkscape:cy="55.005876"
   inkscape:window-width="1366"
   inkscape:window-height="697"
   inkscape:window-x="-8"
   inkscape:window-y="-8"
   inkscape:window-maximized="1"
   inkscape:current-layer="svg2221" />
    <g
   transform="matrix(1.14946,0,0,1.008931,-9.56519,-0.57155648)"
   id="g2183"
   style="stroke-width:0.984732">
        <path
   d="M 13.208,60.695 C 16.453,35.548 37.972,16.09 64,16.09 c 26.028,0 47.547,19.458 50.792,44.605 h 0.423 v 6.61 c 0,28.267 -22.949,51.215 -51.215,51.215 -28.266,0 -51.215,-22.948 -51.215,-51.215 v -6.61 z"
   style="fill:#f79329;stroke-width:0.958153"
   id="path2181" />
    </g>
    <g
   transform="matrix(1.277,0,0,1.1208855,-17.7279,-11.071076)"
   id="g2187"
   style="stroke-width:0.984732">
        <circle
   cx="64"
   cy="64"
   r="46.099998"
   style="fill:#ffca28;stroke-width:0.958153"
   id="circle2185" />
    </g>
    <g
   transform="matrix(1.25364,0,0,1.1270491,-15.9695,-9.4455622)"
   id="g2219"
   style="stroke-width:0.973009">
        <g
   transform="matrix(0.521107,0,0,0.521107,30.5486,28.3808)"
   id="g2191"
   style="stroke-width:0.973009">
            <path
   d="M 63.79,8.64 C 1.48,8.64 0,78.5 0,92.33 c 0,13.83 28.56,25.03 63.79,25.03 35.24,0 63.79,-11.21 63.79,-25.03 0,-13.83 -1.47,-83.69 -63.79,-83.69 z"
   style="fill:#ffb300;fill-rule:nonzero;stroke-width:0.973009"
   id="path2189" />
        </g>
        <path
   d="m 30.55,76.078 c -0.001,-0.033 -0.001,-0.066 -0.001,-0.099 0,-7.207 0.771,-43.612 33.241,-43.612 32.475,0 33.241,36.405 33.241,43.612 0,0.033 0,0.066 -0.001,0.099 -0.036,-8.089 -1.349,-43.195 -33.24,-43.195 -31.886,0 -33.203,35.106 -33.24,43.195 z"
   style="fill:#f79329;fill-rule:nonzero;stroke-width:0.946747"
   id="path2193" />
        <path
   d="m 57.364,77.413 c -0.035,-0.208 -0.028,-0.426 0.027,-0.642 0.218,-0.829 1.078,-1.332 1.907,-1.115 6.071,1.584 12.616,-0.11 17.082,-4.419 0.291,-0.281 0.68,-0.439 1.084,-0.439 0.425,0 0.832,0.174 1.125,0.48 0.282,0.291 0.439,0.68 0.439,1.084 0,0.088 -0.007,0.174 -0.021,0.258 -0.052,-0.309 -0.197,-0.598 -0.418,-0.826 -0.293,-0.307 -0.7,-0.48 -1.125,-0.48 -0.404,0 -0.793,0.157 -1.084,0.439 -4.466,4.309 -11.011,6.003 -17.082,4.419 -0.829,-0.217 -1.689,0.286 -1.907,1.115 -0.011,0.042 -0.02,0.084 -0.027,0.126 z m 2.122,-14.498 -0.011,0.01 c 0,-0.005 0.005,-0.01 0.011,-0.01 z"
   style="fill:#f79329;fill-rule:nonzero;stroke-width:0.946747"
   id="path2195" />
        <path
   d="m 57.364,77.413 c -0.035,-0.208 -0.028,-0.426 0.027,-0.642 0.218,-0.829 1.078,-1.332 1.907,-1.115 6.071,1.584 12.616,-0.11 17.082,-4.419 0.291,-0.281 0.68,-0.439 1.084,-0.439 0.425,0 0.832,0.174 1.125,0.48 0.282,0.291 0.439,0.68 0.439,1.084 0,0.088 -0.007,0.174 -0.021,0.258 -0.052,-0.309 -0.197,-0.598 -0.418,-0.826 -0.293,-0.307 -0.7,-0.48 -1.125,-0.48 -0.404,0 -0.793,0.157 -1.084,0.439 -4.466,4.309 -11.011,6.003 -17.082,4.419 -0.829,-0.217 -1.689,0.286 -1.907,1.115 -0.011,0.042 -0.02,0.084 -0.027,0.126 z m 2.122,-14.498 -0.011,0.01 c 0,-0.005 0.005,-0.01 0.011,-0.01 z"
   style="fill-opacity:0.08;fill-rule:nonzero;stroke-width:0.946747"
   id="path2197" />
        <g
   transform="matrix(0.521107,0,0,0.521107,30.5486,28.3808)"
   id="g2201"
   style="stroke-width:0.973009">
            <path
   d="m 63.91,98.82 c -3.43,0 -6.87,-0.43 -10.25,-1.31 -1.589,-0.42 -2.557,-2.067 -2.15,-3.66 0.418,-1.59 2.069,-2.556 3.66,-2.14 11.65,3.04 24.21,-0.21 32.78,-8.48 0.558,-0.54 1.304,-0.842 2.08,-0.842 0.815,0 1.596,0.333 2.16,0.922 0.54,0.558 0.842,1.304 0.842,2.08 0,0.815 -0.333,1.596 -0.922,2.16 -7.57,7.3 -17.79,11.27 -28.2,11.27 z m -8.38,-31.56 -0.02,0.02 c 0,-0.01 0.01,-0.02 0.02,-0.02 z"
   style="fill:#f79329;fill-rule:nonzero;stroke-width:0.973009"
   id="path2199" />
        </g>
        <path
   d="m 69.048,62.118 c -0.06,-0.322 -0.008,-0.667 0.172,-0.97 0.094,-0.161 2.397,-3.971 7.488,-3.971 0.605,-0.003 1.209,0.053 1.803,0.167 l 0.045,0.009 c 3.81,0.754 5.563,3.655 5.651,3.795 0.178,0.306 0.229,0.65 0.17,0.972 -0.029,-0.156 -0.085,-0.311 -0.17,-0.456 -0.088,-0.14 -1.841,-3.041 -5.651,-3.795 L 78.511,57.86 c -0.594,-0.114 -1.198,-0.17 -1.803,-0.167 -5.091,0 -7.394,3.809 -7.488,3.971 -0.086,0.144 -0.143,0.298 -0.172,0.454 z m 8.359,-1.547 0.057,0.004 c -0.032,0.204 -0.052,0.404 -0.062,0.6 -0.01,-0.196 -0.008,-0.398 0.005,-0.604 z"
   style="fill:#f79329;stroke-width:0.946747"
   id="path2203" />
        <path
   d="m 69.048,62.118 c -0.06,-0.322 -0.008,-0.667 0.172,-0.97 0.094,-0.161 2.397,-3.971 7.488,-3.971 0.605,-0.003 1.209,0.053 1.803,0.167 l 0.045,0.009 c 3.81,0.754 5.563,3.655 5.651,3.795 0.178,0.306 0.229,0.65 0.17,0.972 -0.029,-0.156 -0.085,-0.311 -0.17,-0.456 -0.088,-0.14 -1.841,-3.041 -5.651,-3.795 L 78.511,57.86 c -0.594,-0.114 -1.198,-0.17 -1.803,-0.167 -5.091,0 -7.394,3.809 -7.488,3.971 -0.086,0.144 -0.143,0.298 -0.172,0.454 z m 8.359,-1.547 0.057,0.004 c -0.032,0.204 -0.052,0.404 -0.062,0.6 -0.01,-0.196 -0.008,-0.398 0.005,-0.604 z"
   style="fill-opacity:0.08;stroke-width:0.946747"
   id="path2205" />
        <g
   transform="translate(0,-1.78947)"
   id="g2209"
   style="stroke-width:0.973009">
            <path
   d="m 78.556,59.658 c 3.81,0.754 5.563,3.655 5.651,3.795 0.344,0.589 0.214,1.324 -0.266,1.762 l -0.01,0.01 -0.002,0.002 c -1.011,0.927 -2.223,1.52 -3.401,1.53 -2.163,0.016 -3.45,-1.902 -3.064,-4.393 v 0 0 c -0.243,-0.026 -0.487,-0.047 -0.751,-0.047 -3.428,0 -4.981,2.476 -5.049,2.585 -0.407,0.667 -1.272,0.886 -1.944,0.485 -0.672,-0.402 -0.896,-1.267 -0.5,-1.934 0.094,-0.161 2.397,-3.97 7.488,-3.97 0.605,-0.003 1.209,0.052 1.803,0.166 z m 5.373,5.569 -0.01,0.008 z"
   style="fill:#f79329;stroke-width:0.973009"
   id="path2207" />
        </g>
        <path
   d="m 43.55,62.118 c -0.06,-0.322 -0.008,-0.667 0.172,-0.97 0.094,-0.161 2.397,-3.971 7.488,-3.971 0.605,-0.003 1.209,0.053 1.804,0.167 l 0.044,0.009 c 3.81,0.754 5.563,3.655 5.651,3.795 0.179,0.306 0.229,0.65 0.17,0.972 -0.029,-0.156 -0.085,-0.311 -0.17,-0.456 -0.088,-0.14 -1.841,-3.041 -5.651,-3.795 L 53.014,57.86 c -0.595,-0.114 -1.199,-0.17 -1.804,-0.167 -5.091,0 -7.394,3.809 -7.488,3.971 -0.086,0.144 -0.142,0.298 -0.172,0.454 z m 8.36,-1.547 0.056,0.004 c -0.032,0.204 -0.052,0.404 -0.061,0.6 -0.01,-0.196 -0.009,-0.398 0.005,-0.604 z"
   style="fill:#f79329;stroke-width:0.946747"
   id="path2211" />
        <path
   d="m 43.55,62.118 c -0.06,-0.322 -0.008,-0.667 0.172,-0.97 0.094,-0.161 2.397,-3.971 7.488,-3.971 0.605,-0.003 1.209,0.053 1.804,0.167 l 0.044,0.009 c 3.81,0.754 5.563,3.655 5.651,3.795 0.179,0.306 0.229,0.65 0.17,0.972 -0.029,-0.156 -0.085,-0.311 -0.17,-0.456 -0.088,-0.14 -1.841,-3.041 -5.651,-3.795 L 53.014,57.86 c -0.595,-0.114 -1.199,-0.17 -1.804,-0.167 -5.091,0 -7.394,3.809 -7.488,3.971 -0.086,0.144 -0.142,0.298 -0.172,0.454 z m 8.36,-1.547 0.056,0.004 c -0.032,0.204 -0.052,0.404 -0.061,0.6 -0.01,-0.196 -0.009,-0.398 0.005,-0.604 z"
   style="fill-opacity:0.08;stroke-width:0.946747"
   id="path2213" />
        <g
   transform="translate(-25.4978,-1.78947)"
   id="g2217"
   style="stroke-width:0.973009">
            <path
   d="m 78.556,59.658 c 3.81,0.754 5.563,3.655 5.651,3.795 0.344,0.589 0.214,1.324 -0.266,1.762 l -0.01,0.01 -0.002,0.002 c -1.011,0.927 -2.223,1.52 -3.401,1.53 -2.163,0.016 -3.45,-1.902 -3.064,-4.393 v 0 0 c -0.243,-0.026 -0.487,-0.047 -0.751,-0.047 -3.428,0 -4.981,2.476 -5.049,2.585 -0.407,0.667 -1.272,0.886 -1.944,0.485 -0.672,-0.402 -0.896,-1.267 -0.5,-1.934 0.094,-0.161 2.397,-3.97 7.488,-3.97 0.605,-0.003 1.209,0.052 1.803,0.166 z m 5.373,5.569 -0.01,0.008 z"
   style="fill:#f79329;stroke-width:0.973009"
   id="path2215" />
        </g>
    </g>
</svg>

<?xml version="1.0" encoding="UTF-8" standalone="no"?>
<!DOCTYPE svg PUBLIC "-//W3C//DTD SVG 1.1//EN" "http://www.w3.org/Graphics/SVG/1.1/DTD/svg11.dtd">
<svg width="100%" height="100%" viewBox="0 0 128 128" version="1.1" xmlns="http://www.w3.org/2000/svg" xmlns:xlink="http://www.w3.org/1999/xlink" xml:space="preserve" xmlns:serif="http://www.serif.com/" style="fill-rule:evenodd;clip-rule:evenodd;stroke-linejoin:round;stroke-miterlimit:2;">
    <g transform="matrix(1.14946,0,0,0.978358,-9.56519,1.38511)">
        <path d="M13.208,60.695C16.453,35.548 37.972,16.09 64,16.09C90.028,16.09 111.547,35.548 114.792,60.695L115.215,60.695L115.215,67.305C115.215,95.572 92.266,118.52 64,118.52C35.734,118.52 12.785,95.572 12.785,67.305L12.785,60.695L13.208,60.695Z" style="fill:rgb(247,147,41);"/>
    </g>
    <g transform="matrix(1.277,0,0,1.08692,-17.7279,-8.79625)">
        <circle cx="64" cy="64" r="46.1" style="fill:rgb(255,202,40);"/>
    </g>
    <g transform="matrix(1.25364,0,0,1.06703,-15.9695,-4.27209)">
        <g transform="matrix(0.521107,0,0,0.521107,30.5486,28.3808)">
            <path d="M63.79,8.64C1.48,8.64 0,78.5 0,92.33C0,106.16 28.56,117.36 63.79,117.36C99.03,117.36 127.58,106.15 127.58,92.33C127.58,78.5 126.11,8.64 63.79,8.64Z" style="fill:rgb(255,179,0);fill-rule:nonzero;"/>
        </g>
        <path d="M30.55,76.078C30.549,76.045 30.549,76.012 30.549,75.979C30.549,68.772 31.32,32.367 63.79,32.367C96.265,32.367 97.031,68.772 97.031,75.979C97.031,76.012 97.031,76.045 97.03,76.078C96.994,67.989 95.681,32.883 63.79,32.883C31.904,32.883 30.587,67.989 30.55,76.078Z" style="fill:rgb(247,147,41);fill-rule:nonzero;"/>
        <path d="M57.364,77.413C57.329,77.205 57.336,76.987 57.391,76.771C57.609,75.942 58.469,75.439 59.298,75.656C65.369,77.24 71.914,75.546 76.38,71.237C76.671,70.956 77.06,70.798 77.464,70.798C77.889,70.798 78.296,70.972 78.589,71.278C78.871,71.569 79.028,71.958 79.028,72.362C79.028,72.45 79.021,72.536 79.007,72.62C78.955,72.311 78.81,72.022 78.589,71.794C78.296,71.487 77.889,71.314 77.464,71.314C77.06,71.314 76.671,71.471 76.38,71.753C71.914,76.062 65.369,77.756 59.298,76.172C58.469,75.955 57.609,76.458 57.391,77.287C57.38,77.329 57.371,77.371 57.364,77.413ZM59.486,62.915L59.475,62.925C59.475,62.92 59.48,62.915 59.486,62.915Z" style="fill:rgb(247,147,41);fill-rule:nonzero;"/>
        <path d="M57.364,77.413C57.329,77.205 57.336,76.987 57.391,76.771C57.609,75.942 58.469,75.439 59.298,75.656C65.369,77.24 71.914,75.546 76.38,71.237C76.671,70.956 77.06,70.798 77.464,70.798C77.889,70.798 78.296,70.972 78.589,71.278C78.871,71.569 79.028,71.958 79.028,72.362C79.028,72.45 79.021,72.536 79.007,72.62C78.955,72.311 78.81,72.022 78.589,71.794C78.296,71.487 77.889,71.314 77.464,71.314C77.06,71.314 76.671,71.471 76.38,71.753C71.914,76.062 65.369,77.756 59.298,76.172C58.469,75.955 57.609,76.458 57.391,77.287C57.38,77.329 57.371,77.371 57.364,77.413ZM59.486,62.915L59.475,62.925C59.475,62.92 59.48,62.915 59.486,62.915Z" style="fill-opacity:0.08;fill-rule:nonzero;"/>
        <g transform="matrix(0.521107,0,0,0.521107,30.5486,28.3808)">
            <path d="M63.91,98.82C60.48,98.82 57.04,98.39 53.66,97.51C52.071,97.09 51.103,95.443 51.51,93.85C51.928,92.26 53.579,91.294 55.17,91.71C66.82,94.75 79.38,91.5 87.95,83.23C88.508,82.69 89.254,82.388 90.03,82.388C90.845,82.388 91.626,82.721 92.19,83.31C92.73,83.868 93.032,84.614 93.032,85.39C93.032,86.205 92.699,86.986 92.11,87.55C84.54,94.85 74.32,98.82 63.91,98.82ZM55.53,67.26L55.51,67.28C55.51,67.27 55.52,67.26 55.53,67.26Z" style="fill:rgb(247,147,41);fill-rule:nonzero;"/>
        </g>
        <path d="M69.048,62.118C68.988,61.796 69.04,61.451 69.22,61.148C69.314,60.987 71.617,57.177 76.708,57.177C77.313,57.174 77.917,57.23 78.511,57.344L78.556,57.353C82.366,58.107 84.119,61.008 84.207,61.148C84.385,61.454 84.436,61.798 84.377,62.12C84.348,61.964 84.292,61.809 84.207,61.664C84.119,61.524 82.366,58.623 78.556,57.869L78.511,57.86C77.917,57.746 77.313,57.69 76.708,57.693C71.617,57.693 69.314,61.502 69.22,61.664C69.134,61.808 69.077,61.962 69.048,62.118ZM77.407,60.571L77.464,60.575C77.432,60.779 77.412,60.979 77.402,61.175C77.392,60.979 77.394,60.777 77.407,60.571Z" style="fill:rgb(247,147,41);"/>
        <path d="M69.048,62.118C68.988,61.796 69.04,61.451 69.22,61.148C69.314,60.987 71.617,57.177 76.708,57.177C77.313,57.174 77.917,57.23 78.511,57.344L78.556,57.353C82.366,58.107 84.119,61.008 84.207,61.148C84.385,61.454 84.436,61.798 84.377,62.12C84.348,61.964 84.292,61.809 84.207,61.664C84.119,61.524 82.366,58.623 78.556,57.869L78.511,57.86C77.917,57.746 77.313,57.69 76.708,57.693C71.617,57.693 69.314,61.502 69.22,61.664C69.134,61.808 69.077,61.962 69.048,62.118ZM77.407,60.571L77.464,60.575C77.432,60.779 77.412,60.979 77.402,61.175C77.392,60.979 77.394,60.777 77.407,60.571Z" style="fill-opacity:0.08;"/>
        <g transform="matrix(1,0,0,1,0,-1.78947)">
            <path d="M78.556,59.658C82.366,60.412 84.119,63.313 84.207,63.453C84.551,64.042 84.421,64.777 83.941,65.215L83.931,65.225L83.929,65.227C82.918,66.154 81.706,66.747 80.528,66.757C78.365,66.773 77.078,64.855 77.464,62.364L77.464,62.364L77.464,62.364C77.221,62.338 76.977,62.317 76.713,62.317C73.285,62.317 71.732,64.793 71.664,64.902C71.257,65.569 70.392,65.788 69.72,65.387C69.048,64.985 68.824,64.12 69.22,63.453C69.314,63.292 71.617,59.483 76.708,59.483C77.313,59.48 77.917,59.535 78.511,59.649L78.556,59.658ZM83.929,65.227L83.919,65.235L83.929,65.227Z" style="fill:rgb(247,147,41);"/>
        </g>
        <path d="M43.55,62.118C43.49,61.796 43.542,61.451 43.722,61.148C43.816,60.987 46.119,57.177 51.21,57.177C51.815,57.174 52.419,57.23 53.014,57.344L53.058,57.353C56.868,58.107 58.621,61.008 58.709,61.148C58.888,61.454 58.938,61.798 58.879,62.12C58.85,61.964 58.794,61.809 58.709,61.664C58.621,61.524 56.868,58.623 53.058,57.869L53.014,57.86C52.419,57.746 51.815,57.69 51.21,57.693C46.119,57.693 43.816,61.502 43.722,61.664C43.636,61.808 43.58,61.962 43.55,62.118ZM51.91,60.571L51.966,60.575C51.934,60.779 51.914,60.979 51.905,61.175C51.895,60.979 51.896,60.777 51.91,60.571Z" style="fill:rgb(247,147,41);"/>
        <path d="M43.55,62.118C43.49,61.796 43.542,61.451 43.722,61.148C43.816,60.987 46.119,57.177 51.21,57.177C51.815,57.174 52.419,57.23 53.014,57.344L53.058,57.353C56.868,58.107 58.621,61.008 58.709,61.148C58.888,61.454 58.938,61.798 58.879,62.12C58.85,61.964 58.794,61.809 58.709,61.664C58.621,61.524 56.868,58.623 53.058,57.869L53.014,57.86C52.419,57.746 51.815,57.69 51.21,57.693C46.119,57.693 43.816,61.502 43.722,61.664C43.636,61.808 43.58,61.962 43.55,62.118ZM51.91,60.571L51.966,60.575C51.934,60.779 51.914,60.979 51.905,61.175C51.895,60.979 51.896,60.777 51.91,60.571Z" style="fill-opacity:0.08;"/>
        <g transform="matrix(1,0,0,1,-25.4978,-1.78947)">
            <path d="M78.556,59.658C82.366,60.412 84.119,63.313 84.207,63.453C84.551,64.042 84.421,64.777 83.941,65.215L83.931,65.225L83.929,65.227C82.918,66.154 81.706,66.747 80.528,66.757C78.365,66.773 77.078,64.855 77.464,62.364L77.464,62.364L77.464,62.364C77.221,62.338 76.977,62.317 76.713,62.317C73.285,62.317 71.732,64.793 71.664,64.902C71.257,65.569 70.392,65.788 69.72,65.387C69.048,64.985 68.824,64.12 69.22,63.453C69.314,63.292 71.617,59.483 76.708,59.483C77.313,59.48 77.917,59.535 78.511,59.649L78.556,59.658ZM83.929,65.227L83.919,65.235L83.929,65.227Z" style="fill:rgb(247,147,41);"/>
        </g>
    </g>
</svg>
